X: 20541
T: John McGrath's
R: reel
M: 4/4
K: Dmajor
dF ~F2 AGFE|DEFD EB, ~B,2|DEFA B/c/d AF|EDEF E2 A/B/c|
[1 dF ~F2 AGFE|DEFD EB, ~B,2|DEFA B/c/d AF|EDEF D2:|
[2 ~d3 B ~c3 A|~B3 c BAFE|D2 FA B/c/d AF|EDEF D2||
d2 fd edfd|BA B/c/d AFEF|D2 FA B/c/d AF|
[1 EDEF E2 A/B/c|d2fd edfd|BA B/c/d AFEF|D2 FA B/c/d AF|EDEF D2 A/B/c:|
[2 EDEF E2 B/c/d|faba fd~d2|BA B/c/d AFEF|D2 FA B/c/d AF|EDEF D2||

